X: 091
T: Iron Tower
%R: hornpipe
Z: 2014 John Chambers <jc:trillian.mit.edu>
B: Thompson "Twenty four Country Dances for the Year 1805" p.9 #1
F: http://folkopedia.efdss.org/images/2/2a/Thompson_24_1805.PDF 2014-8-13
M: 2/4
L: 1/8
K: C
|:\
c>eg>e | f>ac'>a | g>e (f/e/d/c/) | B>cd>e |\
c>eg>e | f>ac'>a | g>ed>e | c3 :| (g/a//b//) |
c'>ab>g | a>fg>e | f>d {f}ed/c/ | B>cd (g/a//b//) |\
c'>ab>g | a>fg>e | G>cB>d | c2-cg |
(3c'ac' (3bgb | (3afa (3geg | (3fdf (3edc | B>cd>e |\
c>ed>f | e>gf>a | g>ed>e | c2z2 |]
% - - - - - - - - - - - - - - - - - - - - - - - - -
%%begintext align
%% Right hands across, left back again, lead
%% down the middle up again, turn your Partner.
%%endtext
% - - - - - - - - - - - - - - - - - - - - - - - - -
